X:102
T:Milliner's Shop, The
M:6/8
L:1/8
B:Thompson's Compleat Collection of 200 Favourite Country Dances, vol. 1 (London, 1757)
Z:Transcribed and edited by Fynnian Titford-Mock, 2007
Z:abc's:AK/Fiddler's Companion
K:Bb
B>cB F>DF|B>cB F>DF|B>FB d>Bd|f3 F3::f>gf dbd|cac BgB|
f>gf dbd|"tr"d3 c3|f>gf dbd|cac AGF|ddB ccA|B3 B,3:|

